markets/DHEDGE.svg

<svg width="42" height="42" viewBox="0 0 42 42" fill="none" xmlns="http://www.w3.org/2000/svg">
<path d="M21 42C32.598 42 42 32.598 42 21C42 9.40202 32.598 0 21 0C9.40202 0 0 9.40202 0 21C0 32.598 9.40202 42 21 42Z" fill="#1466CD"/>
<path fill-rule="evenodd" clip-rule="evenodd" d="M23.3305 8.47241L18.7855 10.4608V29.9188L23.3305 27.7883V8.47241ZM31 19.0044L26.7392 16.9941V29.3272L31 31.4811V19.0044ZM11.4 22.3912L15.945 20.4028V31.197L11.4 33.3274V22.3912Z" fill="white"/>
</svg>

<svg xmlns="http://www.w3.org/2000/svg" width="42" height="42" fill="none"><path fill="#1466CD" d="M21 42c11.598 0 21-9.402 21-21S32.598 0 21 0 0 9.402 0 21s9.402 21 21 21Z"/><path fill="#fff" fill-rule="evenodd" d="m23.33 8.472-4.544 1.989v19.458l4.544-2.13V8.471ZM31 19.004l-4.26-2.01v12.333L31 31.481V19.004Zm-19.6 3.387 4.545-1.988v10.794l-4.545 2.13V22.391Z" clip-rule="evenodd"/></svg>
